X:1
T:Title
%%score { ( 1 3 ) | ( 2 4 ) }
L:1/8
Q:1/4=100
M:6/8
K:Ab
V:1 treble nm="Grand Piano"
V:3 treble 
V:2 bass 
V:4 bass 
V:1
 E>=DE c2 A | [FA]3 [DF]2 [DF] | z3 .A3 | B6 | E>=DE c2 [_Gc] | [Fd]3 F2 B | A2 c c2 B | [CA]6 | %8
w: F.~E.~Belden * * * *||||||||
 A>AA .[Fd]3 | [=EA]>[EA][EA] .c3 | c>BA e2 c | [Ac]3 .[GB]3 | [EB]>[EB][EB] .[=Ec]3 | %13
w: |||||
[M:7/8] [FA]>[FA][_GA] [FA]3 F[Q:1/4=99][Q:1/4=97] | %14
w: |
[M:3/4] E2 c c2 B[Q:1/4=96][Q:1/4=94][Q:1/4=93][Q:1/4=91][Q:1/4=90][Q:1/4=88][Q:1/4=87][Q:1/4=85][Q:1/4=84][Q:1/4=82][Q:1/4=81][Q:1/4=79] | %15
w: |
 [CA]6[Q:1/4=78][Q:1/4=76] |] %16
w: |
V:2
 [A,C]>[A,_C][A,=C] [A,E]2 [A,CE] | [D,D]3 [D,A,]2 [D,A,] | [B,,B,]2 [B,,B,] F,A,[B,,A,] | E3 z3 | %4
 [A,C]>[A,_C][A,=C] [A,E]2 [C,A,] | [D,A,]3 [D,A,D]2 [D,F,D] | [E,C]2 [E,A,E] [E,G,E]2 [E,G,D] | %7
 [A,,A,]6 | [A,C_G]>[A,CG][A,CG][K:bass] .[D,A,]3 | [D,D]>[D,D][D,D] .[A,E]3 | %10
 [A,EA]>[A,DA][A,C] [CA]2 [A,EA] | [E,E]3 .[E,E]3 | [E,G,]>[E,G,][D,G,] .[C,G,]3 | %13
[M:7/8] [D,D]>[F,C][E,C] [D,D]3 [D,A,D] |[M:3/4] [E,A,C]2 [E,A,E] [E,G,E]2 [E,G,D] | [A,,A,]6 |] %16
V:3
 x6 | x6 | [=DF]2 [DG] D-[Dc][DB] | z3 .D3 | x6 | x6 | x6 | x6 | x6 | x6 | x6 | x6 | x6 | %13
[M:7/8] x7 |[M:3/4] x6 | x6 |] %16
V:4
 x6 | x6 | z3 .B,,3 | [E,G,]6 | x6 | x6 | x6 | x6 | x3[K:bass] x3 | x6 | x6 | x6 | x6 |[M:7/8] x7 | %14
[M:3/4] x6 | x6 |] %16

